!!!COM: Mozart
!!!OTL: Sechs Variationen in F uber die Arie 'Salve tu, Domine' aus der Oper 'I filosofi immaginarii' 
!!!Variation: Variation 4 a
**function	**harm	**kern	**kern
*	*	*clefF4	*clefG2
*	*	*k[b-e-a-d-]	*k[b-e-a-d-]
*M3/4	*M3/4	*M3/4	*M3/4
*f:	*f:	*f:	*f:
=89	=89	=89	=89
*	*	*^	*
2.T	i	r	[2.F	r
.	.	.	.	8cc
.	.	4A-	.	8a-
.	.	.	.	4f
.	.	4B-	.	.
.	.	.	.	[8dd-
=90	=90	=90	=90	=90
2.T	i	4A-	2.F]	8dd-]
.	.	.	.	4cc
.	.	4G	.	.
.	.	.	.	4b-
.	.	4F	.	.
.	.	.	.	8a-
=91	=91	=91	=91	=91
4T	i	r	[2.F	r
.	.	.	.	(8a-
8T	V	4c	.	8e)
8T	i	.	.	4f
4T	ivc	4d-	.	.
.	.	.	.	[8b-
=92	=92	=92	=92	=92
2.T	i	4c	2.F]	8b-]
.	.	.	.	4a-
.	.	4B-	.	.
.	.	.	.	4g
.	.	4A-	.	.
.	.	.	.	8f
*	*	*v	*v	*
=93	=93	=93	=93
2.T	V	4CC 4C	r
.	.	.	8g
.	.	r	8eL
.	.	(8BB	8BJ
.	.	4C)	8cL
.	.	.	8eJ 8g
=94	=94	=94	=94
2.T	ic	r	[4f [4a-
.	.	8C	.
.	.	2c	(8fL] 8a-]
.	.	.	8eJ 8g
.	.	.	8fL 8a-
.	.	.	8eJ) 8g
=95	=95	=95	=95
2.T	ic	4CC 4C	r
.	.	.	8a-
.	.	r	8fL
.	.	(8BB	8BJ
.	.	4C)	8cL
.	.	.	8fJ 8a-
=96	=96	=96	=96
2.T	V7	r	4.g 4.b-
.	.	8C	.
.	.	2c	.
.	.	.	8f# 8a
.	.	.	8gL 8b-
.	.	.	8eJ 8g
=97	=97	=97	=97
4T	i	4F	8fL 8a-
.	.	.	8dd-J
4T	ib	4A-	8ccL
.	.	.	8fJ
4T	V	4c	(8eL 8g
.	.	.	8gJ) 8b-
=98	=98	=98	=98
4T	i	4F	8fL 8a-
.	.	.	8dd-J
4T	ib	4AA-	8ccL
.	.	.	8fJ
4T	V7	4C	(8eL 8g
.	.	.	8gJ) 8b-
=99	=99	=99	=99
4T	i	4F	8fL 8a-
.	.	.	8ffJ
4P	iiob	4BB-	8gL
.	.	.	8dd-J
4D	V7	4C 4B-	8ccL
.	.	.	8eJ
=100	=100	=100	=100
2T	i	4F 4A-	8gL
.	.	.	8fJ
.	.	4FF	r
.	.	.	8f
*-	*-	*-	*-
